images/stars.svg

<svg width="94" height="20" viewBox="0 0 94 20" fill="none" xmlns="http://www.w3.org/2000/svg">
<g clip-path="url(#clip0)">
<path d="M18.8233 7.64894L12.954 6.79604L10.3291 1.47756C10.224 1.26462 10.0195 1.15796 9.81494 1.15796L9.81571 16.4574L15.0646 19.2172C15.4855 19.4381 15.9768 19.0811 15.8965 18.6128L14.8941 12.7667L19.141 8.62685C19.4816 8.29501 19.2935 7.71737 18.8233 7.64894Z" fill="#FFB820"/>
<path d="M13.6616 12.3665C13.6616 12.3665 14.5669 17.6433 14.5699 17.6608C14.5669 17.6605 9.88873 16.4757 9.81571 16.4574C9.81494 16.457 4.56528 19.2172 4.56528 19.2172C4.14437 19.4381 3.65312 19.0811 3.7334 18.6128L4.73578 12.7667L0.488868 8.62685C0.148243 8.29501 0.336332 7.71737 0.806555 7.64894L6.67592 6.79604L9.30076 1.47756C9.40589 1.26462 9.61042 1.15796 9.81494 1.15796L12.1924 7.84429L17.5086 8.61691L13.6616 12.3665Z" fill="#FFD06A"/>
</g>
<g clip-path="url(#clip1)">
<path d="M37.8233 7.64894L31.954 6.79604L29.3291 1.47756C29.224 1.26462 29.0195 1.15796 28.8149 1.15796L28.8157 16.4574L34.0646 19.2172C34.4855 19.4381 34.9768 19.0811 34.8965 18.6128L33.8941 12.7667L38.141 8.62685C38.4816 8.29501 38.2935 7.71737 37.8233 7.64894Z" fill="#FFB820"/>
<path d="M32.6616 12.3665C32.6616 12.3665 33.5669 17.6433 33.5699 17.6608C33.5669 17.6605 28.8887 16.4757 28.8157 16.4574C28.8149 16.457 23.5653 19.2172 23.5653 19.2172C23.1444 19.4381 22.6531 19.0811 22.7334 18.6128L23.7358 12.7667L19.4889 8.62685C19.1482 8.29501 19.3363 7.71737 19.8066 7.64894L25.6759 6.79604L28.3008 1.47756C28.4059 1.26462 28.6104 1.15796 28.8149 1.15796L31.1924 7.84429L36.5086 8.61691L32.6616 12.3665Z" fill="#FFD06A"/>
</g>
<g clip-path="url(#clip2)">
<path d="M56.8233 7.64894L50.954 6.79604L48.3291 1.47756C48.224 1.26462 48.0195 1.15796 47.8149 1.15796L47.8157 16.4574L53.0646 19.2172C53.4855 19.4381 53.9768 19.0811 53.8965 18.6128L52.8941 12.7667L57.141 8.62685C57.4816 8.29501 57.2935 7.71737 56.8233 7.64894Z" fill="#FFB820"/>
<path d="M51.6616 12.3665C51.6616 12.3665 52.5669 17.6433 52.5699 17.6608C52.5669 17.6605 47.8887 16.4757 47.8157 16.4574C47.8149 16.457 42.5653 19.2172 42.5653 19.2172C42.1444 19.4381 41.6531 19.0811 41.7334 18.6128L42.7358 12.7667L38.4889 8.62685C38.1482 8.29501 38.3363 7.71737 38.8066 7.64894L44.6759 6.79604L47.3008 1.47756C47.4059 1.26462 47.6104 1.15796 47.8149 1.15796L50.1924 7.84429L55.5086 8.61691L51.6616 12.3665Z" fill="#FFD06A"/>
</g>
<g clip-path="url(#clip3)">
<path d="M73.8233 7.64894L67.954 6.79604L65.3291 1.47756C65.224 1.26462 65.0195 1.15796 64.8149 1.15796L64.8157 16.4574L70.0646 19.2172C70.4855 19.4381 70.9768 19.0811 70.8965 18.6128L69.8941 12.7667L74.141 8.62685C74.4816 8.29501 74.2935 7.71737 73.8233 7.64894Z" fill="#FFB820"/>
<path d="M68.6616 12.3665C68.6616 12.3665 69.5669 17.6433 69.5699 17.6608C69.5669 17.6605 64.8887 16.4757 64.8157 16.4574C64.8149 16.457 59.5653 19.2172 59.5653 19.2172C59.1444 19.4381 58.6531 19.0811 58.7334 18.6128L59.7358 12.7667L55.4889 8.62685C55.1482 8.29501 55.3363 7.71737 55.8066 7.64894L61.6759 6.79604L64.3008 1.47756C64.4059 1.26462 64.6104 1.15796 64.8149 1.15796L67.1924 7.84429L72.5086 8.61691L68.6616 12.3665Z" fill="#FFD06A"/>
</g>
<g clip-path="url(#clip4)">
<path d="M92.8233 7.64894L86.954 6.79604L84.3291 1.47756C84.224 1.26462 84.0195 1.15796 83.8149 1.15796L83.8157 16.4574L89.0646 19.2172C89.4855 19.4381 89.9768 19.0811 89.8965 18.6128L88.8941 12.7667L93.141 8.62685C93.4816 8.29501 93.2935 7.71737 92.8233 7.64894Z" fill="#FFB820"/>
<path d="M87.6616 12.3665C87.6616 12.3665 88.5669 17.6433 88.5699 17.6608C88.5669 17.6605 83.8887 16.4757 83.8157 16.4574C83.8149 16.457 78.5653 19.2172 78.5653 19.2172C78.1444 19.4381 77.6531 19.0811 77.7334 18.6128L78.7358 12.7667L74.4889 8.62685C74.1482 8.29501 74.3363 7.71737 74.8066 7.64894L80.6759 6.79604L83.3008 1.47756C83.4059 1.26462 83.6104 1.15796 83.8149 1.15796L86.1924 7.84429L91.5086 8.61691L87.6616 12.3665Z" fill="#FFD06A"/>
</g>
<defs>
<clipPath id="clip0">
<rect width="19" height="19" fill="white" transform="translate(0.314941 0.721191)"/>
</clipPath>
<clipPath id="clip1">
<rect width="19" height="19" fill="white" transform="translate(19.3149 0.721191)"/>
</clipPath>
<clipPath id="clip2">
<rect width="19" height="19" fill="white" transform="translate(38.3149 0.721191)"/>
</clipPath>
<clipPath id="clip3">
<rect width="19" height="19" fill="white" transform="translate(55.3149 0.721191)"/>
</clipPath>
<clipPath id="clip4">
<rect width="19" height="19" fill="white" transform="translate(74.3149 0.721191)"/>
</clipPath>
</defs>
</svg>

<svg width="94" height="20" fill="none" xmlns="http://www.w3.org/2000/svg"><g clip-path="url(#clip0)"><path d="M18.823 7.649l-5.869-.853-2.625-5.318a.567.567 0 00-.514-.32v15.3l5.25 2.76c.42.22.912-.137.832-.605l-1.003-5.846 4.247-4.14a.573.573 0 00-.318-.978z" fill="#FFB820"/><path d="M13.662 12.367l.908 5.294-4.754-1.204-5.25 2.76a.573.573 0 01-.833-.604l1.003-5.846-4.247-4.14a.573.573 0 01.318-.978l5.869-.853L9.3 1.478a.567.567 0 01.514-.32l2.377 6.686 5.317.773-3.847 3.75z" fill="#FFD06A"/></g><g clip-path="url(#clip1)"><path d="M37.823 7.649l-5.869-.853-2.625-5.318a.567.567 0 00-.514-.32v15.3l5.25 2.76c.42.22.912-.137.832-.605l-1.003-5.846 4.247-4.14a.573.573 0 00-.318-.978z" fill="#FFB820"/><path d="M32.662 12.367l.908 5.294-4.754-1.204-5.25 2.76a.573.573 0 01-.833-.604l1.003-5.846-4.247-4.14a.573.573 0 01.318-.978l5.869-.853L28.3 1.478a.567.567 0 01.514-.32l2.377 6.686 5.317.773-3.847 3.75z" fill="#FFD06A"/></g><g clip-path="url(#clip2)"><path d="M56.823 7.649l-5.869-.853-2.625-5.318a.567.567 0 00-.514-.32v15.3l5.25 2.76c.42.22.912-.137.832-.605l-1.003-5.846 4.247-4.14a.573.573 0 00-.318-.978z" fill="#FFB820"/><path d="M51.662 12.367l.908 5.294-4.754-1.204-5.25 2.76a.573.573 0 01-.833-.604l1.003-5.846-4.247-4.14a.573.573 0 01.318-.978l5.869-.853L47.3 1.478a.567.567 0 01.514-.32l2.377 6.686 5.317.773-3.847 3.75z" fill="#FFD06A"/></g><g clip-path="url(#clip3)"><path d="M73.823 7.649l-5.869-.853-2.625-5.318a.567.567 0 00-.514-.32v15.3l5.25 2.76c.42.22.912-.137.832-.605l-1.003-5.846 4.247-4.14a.573.573 0 00-.318-.978z" fill="#FFB820"/><path d="M68.662 12.367l.908 5.294-4.754-1.204-5.25 2.76a.573.573 0 01-.833-.604l1.003-5.846-4.247-4.14a.573.573 0 01.318-.978l5.869-.853L64.3 1.478a.567.567 0 01.514-.32l2.377 6.686 5.317.773-3.847 3.75z" fill="#FFD06A"/></g><g clip-path="url(#clip4)"><path d="M92.823 7.649l-5.869-.853-2.625-5.318a.567.567 0 00-.514-.32v15.3l5.25 2.76c.42.22.912-.137.832-.605l-1.003-5.846 4.247-4.14a.573.573 0 00-.318-.978z" fill="#FFB820"/><path d="M87.662 12.367l.908 5.294-4.754-1.204-5.25 2.76a.573.573 0 01-.833-.604l1.003-5.846-4.247-4.14a.573.573 0 01.318-.978l5.869-.853L83.3 1.478a.567.567 0 01.514-.32l2.377 6.686 5.317.773-3.847 3.75z" fill="#FFD06A"/></g><defs><clipPath id="clip0"><path fill="#fff" transform="translate(.315 .721)" d="M0 0h19v19H0z"/></clipPath><clipPath id="clip1"><path fill="#fff" transform="translate(19.315 .721)" d="M0 0h19v19H0z"/></clipPath><clipPath id="clip2"><path fill="#fff" transform="translate(38.315 .721)" d="M0 0h19v19H0z"/></clipPath><clipPath id="clip3"><path fill="#fff" transform="translate(55.315 .721)" d="M0 0h19v19H0z"/></clipPath><clipPath id="clip4"><path fill="#fff" transform="translate(74.315 .721)" d="M0 0h19v19H0z"/></clipPath></defs></svg>
